X:190
T: Cousins (The)
C: BB
M: 4/4
L: 1/8
Q: 1/8=350
R: reel
K: A
"A"EA (3ABA cBAc|"F#m"efec "Bm"BcAF|"A"EFAB "F#m"cdef|"A"ecAc "E"B2 AF|
"A"EA (3ABA cBAc|"A"eafe "F#m"cBAF|"E"EB (3BAB "A"Aece|"E7"dBGE "A"A4 :|
"A"eaag abag|"F#m"fcce fcBc|"A"ec (3cBc "F#m"faec|"D"dcBA "E"B2 cd|
"A"eaag abag|"F#m"fcce fcBc|"A"Acec "D"fgaf|"E7"edBG "A"A4 :|
